Numix-Light/16/status/indicator-keyboard-De-5.svg

<?xml version="1.0" encoding="UTF-8" standalone="no"?>
<svg
   xmlns:dc="http://purl.org/dc/elements/1.1/"
   xmlns:cc="http://creativecommons.org/ns#"
   xmlns:rdf="http://www.w3.org/1999/02/22-rdf-syntax-ns#"
   xmlns:svg="http://www.w3.org/2000/svg"
   xmlns="http://www.w3.org/2000/svg"
   xmlns:sodipodi="http://sodipodi.sourceforge.net/DTD/sodipodi-0.dtd"
   xmlns:inkscape="http://www.inkscape.org/namespaces/inkscape"
   viewBox="0 0 16 16"
   id="svg2"
   version="1.1"
   inkscape:version="0.91 r13725"
   sodipodi:docname="indicator-keyboard-De-5.svg">
  <metadata
     id="metadata14">
    <rdf:RDF>
      <cc:Work
         rdf:about="">
        <dc:format>image/svg+xml</dc:format>
        <dc:type
           rdf:resource="http://purl.org/dc/dcmitype/StillImage" />
      </cc:Work>
    </rdf:RDF>
  </metadata>
  <defs
     id="defs12" />
  <sodipodi:namedview
     pagecolor="#ffffff"
     bordercolor="#666666"
     borderopacity="1"
     objecttolerance="10"
     gridtolerance="10"
     guidetolerance="10"
     inkscape:pageopacity="0"
     inkscape:pageshadow="2"
     inkscape:window-width="459"
     inkscape:window-height="369"
     id="namedview10"
     showgrid="false"
     inkscape:zoom="14.75"
     inkscape:cx="8"
     inkscape:cy="8"
     inkscape:window-x="65"
     inkscape:window-y="24"
     inkscape:window-maximized="0"
     inkscape:current-layer="svg2" />
  <path
     style="fill:#353535;fill-opacity:1"
     d="M 1.5996094 0 C 0.71320937 2.9605947e-16 0 0.71320937 0 1.5996094 L 0 14.400391 C 2.9605947e-16 15.286791 0.71320937 16 1.5996094 16 L 14.400391 16 C 15.286791 16 16 15.286791 16 14.400391 L 16 1.5996094 C 16 0.71320937 15.286791 0 14.400391 0 L 1.5996094 0 z M 2.8886719 4.8046875 C 3.3926719 4.8046875 3.8534375 4.8719062 4.2734375 5.0039062 C 4.6934375 5.1359063 5.0535156 5.3336562 5.3535156 5.5976562 C 5.6595156 5.8616563 5.8964531 6.1918906 6.0644531 6.5878906 C 6.2324531 6.9838906 6.3164062 7.4446562 6.3164062 7.9726562 C 6.3164062 8.5066563 6.2324531 8.9711875 6.0644531 9.3671875 C 5.8964531 9.7631875 5.6595156 10.093422 5.3535156 10.357422 C 5.0535156 10.621422 4.6934375 10.819172 4.2734375 10.951172 C 3.8534375 11.083172 3.3926719 11.150391 2.8886719 11.150391 C 2.6366719 11.150391 2.3717031 11.135469 2.0957031 11.105469 C 1.8197031 11.081469 1.5771875 11.042281 1.3671875 10.988281 L 1.3671875 4.9765625 C 1.5771875 4.9165625 1.8197031 4.8736094 2.0957031 4.8496094 C 2.3717031 4.8196094 2.6366719 4.8046875 2.8886719 4.8046875 z M 2.9609375 5.3359375 C 2.6369375 5.3359375 2.4 5.3452812 2.25 5.3632812 C 2.106 5.3812812 2.0145156 5.3924375 1.9785156 5.3984375 L 1.9785156 10.556641 C 2.0145156 10.562641 2.106 10.573797 2.25 10.591797 C 2.4 10.609797 2.6369375 10.619141 2.9609375 10.619141 C 3.4109375 10.619141 3.8026719 10.559453 4.1386719 10.439453 C 4.4746719 10.313453 4.756375 10.136203 4.984375 9.9082031 C 5.212375 9.6802031 5.3840469 9.4040781 5.4980469 9.0800781 C 5.6120469 8.7500781 5.6699219 8.3806563 5.6699219 7.9726562 C 5.6699219 7.5646562 5.6120469 7.199 5.4980469 6.875 C 5.3840469 6.551 5.212375 6.274875 4.984375 6.046875 C 4.756375 5.818875 4.4746719 5.6453906 4.1386719 5.5253906 C 3.8026719 5.3993906 3.4109375 5.3359375 2.9609375 5.3359375 z M 9.3964844 6.3359375 C 9.9664842 6.3359375 10.419859 6.5205781 10.755859 6.8925781 C 11.097859 7.2645781 11.269531 7.8373281 11.269531 8.6113281 C 11.269531 8.6593281 11.265766 8.7078594 11.259766 8.7558594 C 11.259766 8.8038594 11.256 8.848625 11.25 8.890625 L 7.984375 8.890625 C 8.002375 9.460625 8.14225 9.8990779 8.40625 10.205078 C 8.67025 10.511078 9.0900156 10.664062 9.6660156 10.664062 C 9.9840155 10.664062 10.235875 10.634219 10.421875 10.574219 C 10.607875 10.514219 10.744125 10.463875 10.828125 10.421875 L 10.935547 10.925781 C 10.851547 10.973781 10.692984 11.029703 10.458984 11.095703 C 10.230984 11.161703 9.9604374 11.195312 9.6484375 11.195312 C 9.2404375 11.195312 8.8934688 11.135625 8.6054688 11.015625 C 8.3174687 10.895625 8.0805313 10.727719 7.8945312 10.511719 C 7.7085312 10.295719 7.5722813 10.040094 7.4882812 9.7460938 C 7.4042813 9.4460938 7.3632812 9.119625 7.3632812 8.765625 C 7.3632812 8.357625 7.4192031 8.003125 7.5332031 7.703125 C 7.6532031 7.397125 7.8061875 7.1415 7.9921875 6.9375 C 8.1841875 6.7335 8.400625 6.5842813 8.640625 6.4882812 C 8.886625 6.3862812 9.1384844 6.3359375 9.3964844 6.3359375 z M 9.40625 6.8574219 C 9.19625 6.8574219 9.0058906 6.8984219 8.8378906 6.9824219 C 8.6758906 7.0664219 8.53225 7.1802188 8.40625 7.3242188 C 8.28625 7.4622187 8.1911406 7.6245469 8.1191406 7.8105469 C 8.0531406 7.9965469 8.0139531 8.1924844 8.0019531 8.3964844 L 10.666016 8.3964844 C 10.654016 7.9104844 10.540219 7.5317188 10.324219 7.2617188 C 10.108219 6.9917187 9.80225 6.8574219 9.40625 6.8574219 z M 12.667969 8.8417969 L 14.492188 8.8417969 L 14.492188 9.1757812 L 13 9.1757812 C 12.996133 9.2498812 12.990255 9.3458906 12.982422 9.4628906 C 12.974622 9.5798906 12.966784 9.6994188 12.958984 9.8242188 C 12.951184 9.9451188 12.941387 10.062681 12.929688 10.175781 C 12.917987 10.288881 12.908191 10.379012 12.900391 10.445312 C 13.200691 10.453112 13.461287 10.490341 13.679688 10.556641 C 13.898087 10.622941 14.076397 10.711119 14.216797 10.824219 C 14.357197 10.937319 14.461044 11.074475 14.527344 11.234375 C 14.597544 11.394275 14.632812 11.572578 14.632812 11.767578 C 14.632812 11.939178 14.603422 12.097894 14.544922 12.246094 C 14.490322 12.394294 14.404109 12.523613 14.287109 12.632812 C 14.170109 12.742012 14.02315 12.828225 13.84375 12.890625 C 13.66435 12.953025 13.450778 12.984375 13.205078 12.984375 C 13.080278 12.984375 12.962716 12.974578 12.853516 12.955078 C 12.748216 12.939478 12.654159 12.919884 12.568359 12.896484 C 12.486459 12.873084 12.415922 12.849572 12.357422 12.826172 C 12.298922 12.802772 12.255816 12.783178 12.228516 12.767578 L 12.328125 12.427734 C 12.351525 12.443334 12.390712 12.462928 12.445312 12.486328 C 12.503813 12.509728 12.570431 12.533241 12.644531 12.556641 C 12.722531 12.576141 12.806791 12.593775 12.900391 12.609375 C 12.997891 12.624975 13.099778 12.632812 13.205078 12.632812 C 13.400078 12.632812 13.562706 12.611259 13.691406 12.568359 C 13.824006 12.521559 13.927859 12.458859 14.005859 12.380859 C 14.083859 12.302859 14.138722 12.212728 14.169922 12.111328 C 14.205022 12.006028 14.222656 11.894337 14.222656 11.773438 C 14.222656 11.617437 14.197184 11.476362 14.146484 11.351562 C 14.095784 11.226762 14.007606 11.120956 13.878906 11.035156 C 13.750206 10.949356 13.575822 10.884697 13.357422 10.841797 C 13.139022 10.794997 12.862744 10.771484 12.527344 10.771484 C 12.550744 10.572584 12.570337 10.392316 12.585938 10.228516 C 12.601537 10.060816 12.615253 9.9001469 12.626953 9.7480469 C 12.638653 9.5920469 12.646491 9.4431281 12.650391 9.2988281 C 12.658191 9.1506281 12.664069 8.9977969 12.667969 8.8417969 z "
     id="path4" />
</svg>

<svg xmlns="http://www.w3.org/2000/svg" viewBox="0 0 16 16">
 <path d="m 1.6 0 c -0.886 0 -1.6 0.713 -1.6 1.6 l 0 12.801 c 0 0.886 0.713 1.6 1.6 1.6 l 12.801 0 c 0.886 0 1.6 -0.713 1.6 -1.6 l 0 -12.801 c 0 -0.886 -0.713 -1.6 -1.6 -1.6 l -12.801 0 z m 1.289 4.805 c 0.504 0 0.965 0.067 1.385 0.199 c 0.42 0.132 0.78 0.33 1.08 0.594 c 0.306 0.264 0.543 0.594 0.711 0.99 c 0.168 0.396 0.252 0.857 0.252 1.385 c 0 0.534 -0.084 0.999 -0.252 1.395 c -0.168 0.396 -0.405 0.726 -0.711 0.99 c -0.3 0.264 -0.66 0.462 -1.08 0.594 c -0.42 0.132 -0.881 0.199 -1.385 0.199 c -0.252 0 -0.517 -0.015 -0.793 -0.045 c -0.276 -0.024 -0.519 -0.063 -0.729 -0.117 l 0 -6.01 c 0.21 -0.06 0.453 -0.103 0.729 -0.127 c 0.276 -0.03 0.541 -0.045 0.793 -0.045 z m 0.072 0.531 c -0.324 0 -0.561 0.009 -0.711 0.027 c -0.144 0.018 -0.235 0.029 -0.271 0.035 l 0 5.158 c 0.036 0.006 0.127 0.017 0.271 0.035 c 0.15 0.018 0.387 0.027 0.711 0.027 c 0.45 0 0.842 -0.06 1.178 -0.18 c 0.336 -0.126 0.618 -0.303 0.846 -0.531 c 0.228 -0.228 0.4 -0.504 0.514 -0.828 c 0.114 -0.33 0.172 -0.699 0.172 -1.107 c 0 -0.408 -0.058 -0.774 -0.172 -1.098 c -0.114 -0.324 -0.286 -0.6 -0.514 -0.828 c -0.228 -0.228 -0.51 -0.401 -0.846 -0.521 c -0.336 -0.126 -0.728 -0.189 -1.178 -0.189 z m 6.436 1 c 0.57 0 1.023 0.185 1.359 0.557 c 0.342 0.372 0.514 0.945 0.514 1.719 c 0 0.048 -0.004 0.097 -0.01 0.145 c 0 0.048 -0.004 0.093 -0.01 0.135 l -3.266 0 c 0.018 0.57 0.158 1.01 0.422 1.314 c 0.264 0.306 0.684 0.459 1.26 0.459 c 0.318 0 0.57 -0.03 0.756 -0.09 c 0.186 -0.06 0.322 -0.11 0.406 -0.152 l 0.107 0.504 c -0.084 0.048 -0.243 0.104 -0.477 0.17 c -0.228 0.066 -0.499 0.1 -0.811 0.1 c -0.408 0 -0.755 -0.06 -1.043 -0.18 c -0.288 -0.12 -0.525 -0.288 -0.711 -0.504 c -0.186 -0.216 -0.322 -0.472 -0.406 -0.766 c -0.084 -0.3 -0.125 -0.626 -0.125 -0.98 c 0 -0.408 0.056 -0.762 0.17 -1.063 c 0.12 -0.306 0.273 -0.562 0.459 -0.766 c 0.192 -0.204 0.408 -0.353 0.648 -0.449 c 0.246 -0.102 0.498 -0.152 0.756 -0.152 z m 0.01 0.521 c -0.21 0 -0.4 0.041 -0.568 0.125 c -0.162 0.084 -0.306 0.198 -0.432 0.342 c -0.12 0.138 -0.215 0.3 -0.287 0.486 c -0.066 0.186 -0.105 0.382 -0.117 0.586 l 2.664 0 c -0.012 -0.486 -0.126 -0.865 -0.342 -1.135 c -0.216 -0.27 -0.522 -0.404 -0.918 -0.404 z m 3.262 1.984 l 1.824 0 l 0 0.334 l -1.492 0 c -0.004 0.074 -0.01 0.17 -0.018 0.287 c -0.008 0.117 -0.016 0.237 -0.023 0.361 c -0.008 0.121 -0.018 0.238 -0.029 0.352 c -0.012 0.113 -0.021 0.203 -0.029 0.27 c 0.3 0.008 0.561 0.045 0.779 0.111 c 0.218 0.066 0.397 0.154 0.537 0.268 c 0.14 0.113 0.244 0.25 0.311 0.41 c 0.07 0.16 0.105 0.338 0.105 0.533 c 0 0.172 -0.029 0.33 -0.088 0.479 c -0.055 0.148 -0.141 0.278 -0.258 0.387 c -0.117 0.109 -0.264 0.195 -0.443 0.258 c -0.179 0.062 -0.393 0.094 -0.639 0.094 c -0.125 0 -0.242 -0.01 -0.352 -0.029 c -0.105 -0.016 -0.199 -0.035 -0.285 -0.059 c -0.082 -0.023 -0.152 -0.047 -0.211 -0.07 c -0.059 -0.023 -0.102 -0.043 -0.129 -0.059 l 0.1 -0.34 c 0.023 0.016 0.063 0.035 0.117 0.059 c 0.059 0.023 0.125 0.047 0.199 0.07 c 0.078 0.019 0.162 0.037 0.256 0.053 c 0.097 0.016 0.199 0.023 0.305 0.023 c 0.195 0 0.358 -0.022 0.486 -0.064 c 0.133 -0.047 0.236 -0.109 0.314 -0.188 c 0.078 -0.078 0.133 -0.168 0.164 -0.27 c 0.035 -0.105 0.053 -0.217 0.053 -0.338 c 0 -0.156 -0.025 -0.297 -0.076 -0.422 c -0.051 -0.125 -0.139 -0.231 -0.268 -0.316 c -0.129 -0.086 -0.303 -0.15 -0.521 -0.193 c -0.218 -0.047 -0.495 -0.07 -0.83 -0.07 c 0.023 -0.199 0.043 -0.379 0.059 -0.543 c 0.016 -0.168 0.029 -0.328 0.041 -0.48 c 0.012 -0.156 0.02 -0.305 0.023 -0.449 c 0.008 -0.148 0.014 -0.301 0.018 -0.457 z" style="fill:#353535;fill-opacity:1"/>
</svg>
